X: 7
T: Bank of Ireland
M:4/4
R:reel
L:1/8
Z:added by Alf 
K:G
AB| c2AB cBAG|EGDG EGAB|c2AB cBAG|Add^c d=fed|
cAAB cABG|~E3D EGAB|cAAB cABG|Add^c d2:|
K:D
e|~f3d  e2fe|dfed cA~A2|~f3d e2fg|afge d2cd|
ea~a2 efge|dfed =cAAG|Addc defg|afge d3:|
